; generated by Slic3r 1.2.9 on 2016-04-17 at 21:02:34

; external perimeters extrusion width = 0.35mm
; perimeters extrusion width = 0.52mm
; infill extrusion width = 0.52mm
; solid infill extrusion width = 0.52mm
; top infill extrusion width = 0.52mm
; support material extrusion width = 0.35mm

M107
M84 S0 ; don't let go of motors
M301 P10 I0.9 D250 ; set better PID parameters
M108 S155 ; make sure extruder and electronics fans are running
M104 S175
M140 S65
; now we've started heating, but let's move off the platform while we wait (and drool)
G28 X0 Y0; home X and Y
G1 F10800 ; set high speed
G1 Y20 ; move into the platform along Y
G1 X205 ; move off the platform end along X
G28 Z0 ; home Z now - blobs won't hit the platform
G1 F400
G1 Z10 ; lift Z a little
M190 S65
M109 S175 ; heat nozzle
G28 Z0 ; home Z
G92 E0 ; reset extruder position to 0
G1 F300 ; set suitable speed
G1 E25 ; extrude 25mm
G92 E0 ; reset extruder position to 0
G1 F10800 ; set high speed
G1 X0 ; wipe nozzle and move to X0
G21 ; set units to millimeters
G90 ; use absolute coordinates
M82 ; use absolute distances for extrusion
G92 E0
G1 Z0.350 F18000.000
G1 E-0.50000 F2400.00000
G92 E0
G1 X31.362 Y117.013 F18000.000
G1 E0.50000 F2400.00000
G1 X32.656 Y116.806 E0.60720 F1800.000
G1 X34.489 Y116.572 E0.75840
G1 X116.711 Y107.477 E7.52822
G1 X117.744 Y107.385 E7.61311
G1 X118.714 Y107.338 E7.69263
G1 X119.225 Y107.334 E7.73439
G1 X121.994 Y107.416 E7.96110
G1 X122.727 Y107.471 E8.02125 F1800.000
G1 X123.364 Y107.561 E8.07397
G1 X124.673 Y107.827 E8.18324
G1 X159.074 Y116.834 E11.09337
G1 X161.158 Y117.792 E11.28106
G1 X162.790 Y119.403 E11.46875
G1 X163.776 Y121.473 E11.65644
G1 X164.016 Y123.188 E11.79812
G1 X164.039 Y125.932 E12.02270
G1 X163.337 Y128.955 E12.27667
G1 X162.721 Y130.183 E12.38912
G1 X161.354 Y132.025 E12.57681
G1 X158.464 Y133.627 E12.84725
G1 X125.322 Y142.235 E15.64942
G1 X123.683 Y142.447 E15.78470
G1 X123.060 Y142.450 E15.83571
G1 X115.385 Y142.464 E16.46381
G1 X113.981 Y142.404 E16.57883
G1 X112.395 Y142.268 E16.70908
G1 X34.714 Y133.806 E23.10384
G1 X31.718 Y133.341 E23.35196
G1 X30.699 Y133.104 E23.43754
G1 X29.260 Y132.516 E23.56475
G1 X28.657 Y132.168 E23.62172
G1 X26.951 Y131.082 E23.78725
G1 X25.259 Y129.534 E23.97494
G1 X24.196 Y127.502 E24.16262
G1 X23.890 Y125.229 E24.35031
G1 X24.586 Y122.525 E24.57880
G1 X24.697 Y122.305 E24.59896
G1 X25.987 Y120.538 E24.77799
G1 X27.248 Y119.303 E24.92245
G1 X28.096 Y118.549 E25.01531
G1 X30.059 Y117.362 E25.20300
G1 X31.312 Y117.027 E25.30915
G1 E24.80915 F2400.00000
G92 E0
G1 X112.044 Y134.379 F18000.000
G1 E0.50000 F2400.00000
G1 X112.186 Y134.184 E0.51973 F1800.000
G1 X112.378 Y133.974 E0.54301
G1 X112.916 Y133.446 E0.60470
G1 X113.291 Y133.135 E0.64459
G1 X113.695 Y132.843 E0.68538
G1 X114.162 Y132.554 E0.73030
G1 X114.545 Y132.351 E0.76583
G1 X114.859 Y132.213 E0.79388
G1 X115.315 Y132.059 E0.83324
G1 X115.758 Y131.946 E0.87071
G1 X116.377 Y131.838 E0.92213
G1 X116.973 Y131.797 E0.97100
G1 X117.553 Y131.813 E1.01850
G1 X118.243 Y131.900 E1.07539
G1 X118.710 Y131.999 E1.11444
G1 X118.971 Y132.084 E1.13691
G1 X119.537 Y132.292 E1.18625
G1 X119.974 Y132.516 E1.22649
G1 X120.497 Y132.817 E1.27586
G1 X121.454 Y133.571 E1.37553
G1 X121.820 Y133.905 E1.41609
G1 X122.094 Y134.212 E1.44979
G1 X122.514 Y134.736 E1.50474
G1 X120.296 Y134.767 E1.68629
G1 X118.906 Y134.826 E1.80016
G1 X115.581 Y134.866 E2.07225
G1 X114.537 Y134.824 E2.15777
G1 X113.210 Y134.711 E2.26680
G1 X112.556 Y134.635 E2.32068
G1 X112.283 Y134.545 E2.34413
G1 X112.087 Y134.409 E2.36365
G1 X111.202 Y134.708 F18000.000
G1 X111.280 Y134.367 E2.39229 F1800.000
G1 X111.701 Y133.788 E2.45089
G1 X111.928 Y133.540 E2.47840
G1 X112.497 Y132.982 E2.54365
G1 X112.909 Y132.641 E2.58738
G1 X113.347 Y132.324 E2.63164
G1 X113.850 Y132.012 E2.68013
G1 X114.273 Y131.788 E2.71926
G1 X114.633 Y131.630 E2.75145
G1 X115.137 Y131.460 E2.79501
G1 X115.627 Y131.335 E2.83636
G1 X116.302 Y131.216 E2.89244
G1 X116.961 Y131.172 E2.94647
G1 X117.601 Y131.190 E2.99889
G1 X118.347 Y131.283 E3.06041
G1 X118.873 Y131.394 E3.10440
G1 X119.176 Y131.494 E3.13050
G1 X119.788 Y131.718 E3.18386
G1 X120.273 Y131.967 E3.22849
G1 X120.848 Y132.298 E3.28279
G1 X121.858 Y133.094 E3.38804
G1 X122.265 Y133.465 E3.43306
G1 X122.571 Y133.809 E3.47072
G1 X122.926 Y134.252 E3.51719
G1 X123.149 Y134.570 E3.54901
G1 X123.438 Y135.068 E3.59609
G1 X123.476 Y135.373 E3.62124
G1 X123.115 Y135.451 E3.65149
G1 X123.002 Y135.375 E3.66263
G1 X122.451 Y135.400 E3.70777
G1 X122.354 Y135.365 E3.71628
G1 X121.772 Y135.378 E3.76387
G1 X121.690 Y135.363 E3.77072
G1 X120.316 Y135.392 E3.88321
G1 X118.921 Y135.451 E3.99749
G1 X117.093 Y135.461 E4.14703
G1 X116.215 Y135.492 E4.21896
G1 X115.568 Y135.491 E4.27188
G1 X114.498 Y135.448 E4.35954
G1 X113.147 Y135.333 E4.47053
G1 X112.420 Y135.248 E4.53041
G1 X112.002 Y135.110 E4.56643
G1 X111.839 Y134.997 E4.58269
G1 X111.454 Y134.842 E4.61657
G1 X111.248 Y134.733 E4.63568
G1 X111.461 Y134.474 F18000.000
G1 X112.827 Y134.015 F18000.000
G1 X113.115 Y134.303 E4.67064 F1800.000
G1 X114.138 Y134.399 E4.75887
G1 X113.294 Y133.554 E4.86138
G1 X113.821 Y133.155 E4.91820
G1 X115.131 Y134.464 E5.07719
G1 X116.077 Y134.483 E5.15848
G1 X114.398 Y132.804 E5.36236
G1 X115.036 Y132.515 E5.42250
G1 X116.993 Y134.472 E5.66014
G1 X117.910 Y134.461 E5.73880
G1 X115.757 Y132.309 E6.00011
G1 X116.570 Y132.195 E6.07060
G1 X118.826 Y134.450 E6.34443
G1 X119.721 Y134.418 E6.42134
G1 X117.509 Y132.207 E6.68985
G1 X118.661 Y132.432 E6.79062
G1 X120.616 Y134.386 E7.02793
G1 X120.967 Y133.810 E7.08586
G1 X121.510 Y134.354 E7.15189
G1 E6.65189 F2400.00000
G92 E0
G1 X117.709 Y130.839 F18000.000
G1 X117.333 Y124.413 F18000.000
G1 X116.853 Y124.394 F18000.000
G1 X116.544 Y124.388 F18000.000
G1 X117.032 Y117.961 F18000.000
G1 X113.971 Y115.507 F18000.000
G1 E0.50000 F2400.00000
G1 X114.902 Y115.426 E0.57646 F1800.000
G1 X115.487 Y115.435 E0.62435
G1 X116.102 Y115.307 E0.67577
G1 X116.334 Y115.292 E0.69476
G1 X117.129 Y115.168 E0.76060
G1 X117.555 Y115.030 E0.79725
G1 X118.128 Y114.975 E0.84440
G1 X119.026 Y114.932 E0.91796
G1 X120.255 Y114.975 E1.01859
G1 X120.648 Y115.026 E1.05100
G1 X121.565 Y115.081 E1.12617
G1 X121.852 Y115.022 E1.15022
G1 X122.320 Y115.117 E1.18927
G1 X121.789 Y115.634 E1.24994
G1 X121.382 Y115.949 E1.29203
G1 X120.985 Y116.209 E1.33089
G1 X120.668 Y116.386 E1.36062
G1 X120.257 Y116.561 E1.39720
G1 X119.582 Y116.795 E1.45561
G1 X118.978 Y116.946 E1.50659
G1 X118.328 Y117.026 E1.56014
G1 X117.762 Y117.034 E1.60648
G1 X117.148 Y116.992 E1.65681
G1 X116.554 Y116.889 E1.70615
G1 X115.882 Y116.697 E1.76342
G1 X115.301 Y116.457 E1.81482
G1 X114.766 Y116.151 E1.86528
G1 X114.414 Y115.893 E1.90098
G1 X114.011 Y115.541 E1.94476
G1 X113.204 Y115.237 F18000.000
G1 X113.643 Y115.018 E1.98497 F1800.000
G1 X114.201 Y114.862 E2.03232
G1 X114.840 Y114.800 E2.08489
G1 X115.427 Y114.809 E2.13297
G1 X116.018 Y114.686 E2.18233
G1 X116.266 Y114.670 E2.20264
G1 X116.981 Y114.559 E2.26186
G1 X117.388 Y114.423 E2.29704
G1 X118.083 Y114.351 E2.35423
G1 X119.028 Y114.306 E2.43161
G1 X120.305 Y114.351 E2.53617
G1 X120.707 Y114.404 E2.56936
G1 X121.519 Y114.453 E2.63597
G1 X121.817 Y114.391 E2.66087
G1 X122.058 Y114.413 E2.68066
G1 X122.845 Y114.598 E2.74678
G1 X122.956 Y114.590 E2.75587
G1 X123.130 Y114.643 E2.77081
G1 X123.128 Y114.974 E2.79788
G1 X122.637 Y115.680 E2.86832
G1 X122.199 Y116.106 E2.91830
G1 X121.745 Y116.458 E2.96527
G1 X121.309 Y116.744 E3.00799
G1 X120.943 Y116.948 E3.04229
G1 X120.482 Y117.145 E3.08331
G1 X119.760 Y117.395 E3.14580
G1 X119.092 Y117.561 E3.20218
G1 X118.371 Y117.650 E3.26161
G1 X117.745 Y117.659 E3.31284
G1 X117.074 Y117.613 E3.36790
G1 X116.415 Y117.499 E3.42263
G1 X115.676 Y117.288 E3.48555
G1 X115.026 Y117.019 E3.54311
G1 X114.425 Y116.676 E3.59974
G1 X114.023 Y116.381 E3.64051
G1 X113.729 Y116.125 E3.67248
G1 X113.260 Y115.564 E3.73229
G1 X113.212 Y115.289 E3.75512
G1 X113.549 Y115.292 F18000.000
G1 X114.791 Y115.757 F18000.000
G1 X115.538 Y115.973 E3.81878 F1800.000
G1 X116.136 Y116.029 E3.86789
G1 X116.800 Y116.523 F18000.000
G1 X116.487 Y116.210 E3.90984 F1800.000
G1 X116.874 Y115.572 E3.98062
G1 X117.956 Y116.654 E4.12585
G1 X118.914 Y116.587 E4.21694
G1 X117.710 Y115.383 E4.37853
G1 X118.673 Y115.322 E4.47009
G1 X119.732 Y116.381 E4.61221
G1 X119.718 Y115.342 E4.71078
G1 X120.477 Y116.101 E4.81261
G1 X120.825 Y115.424 E4.88480
G1 X121.111 Y115.711 E4.92323
G1 E4.42323 F2400.00000
G92 E0
G1 X112.931 Y115.716 F18000.000
G1 X93.612 Y124.899 F18000.000
G1 X80.297 Y128.690 F18000.000
G1 X78.001 Y128.597 F18000.000
G1 X74.098 Y120.900 F18000.000
G1 X73.834 Y120.345 F18000.000
G1 X72.046 Y120.927 F18000.000
G1 E0.50000 F2400.00000
G1 X72.433 Y120.574 E0.54285 F1800.000
G1 X72.627 Y120.540 E0.55899
G1 X73.610 Y120.263 E0.64260
G1 Z0.350 F18000.000
G1 E0.14260 F2400.00000
G92 E0
G1 X35.295 Y124.284 F18000.000
G1 E0.50000 F2400.00000
G1 X35.381 Y124.113 E0.50688 F1800.000
G1 X35.350 Y123.532 E0.52782
G1 X34.833 Y124.565 E0.56942
G1 X34.431 Y124.725 F18000.000
G1 X35.217 Y123.157 E0.63258 F1800.000
G1 X34.873 Y123.201 E0.64505
G1 X33.049 Y126.841 E0.79161
G1 X32.749 Y126.797 E0.80251
G1 X34.530 Y123.245 E0.94555
G1 X34.186 Y123.289 E0.95803
G1 X32.467 Y126.719 E1.09614
G1 X32.215 Y126.580 E1.10650
G1 X33.842 Y123.333 E1.23723
G1 X33.499 Y123.377 E1.24971
G1 X31.972 Y126.425 E1.37242
G1 X31.728 Y126.269 E1.38282
G1 X33.132 Y123.467 E1.49566
G1 X32.793 Y123.503 E1.50796
G1 X31.484 Y126.114 E1.61309
G1 X31.240 Y125.959 E1.62350
G1 X32.453 Y123.540 E1.72092
G1 X31.881 Y124.039 F18000.000
G1 X30.997 Y125.804 E1.79200 F1800.000
G1 X30.753 Y125.649 E1.80240
G1 X31.250 Y124.656 E1.84238
G1 X30.620 Y125.273 F18000.000
G1 X30.509 Y125.493 E1.85125 F1800.000
G1 E1.35125 F2400.00000
G92 E0
G1 X34.277 Y125.032 F18000.000
G1 E0.50000 F2400.00000
G1 X33.358 Y126.866 E0.57385 F1800.000
G1 X33.656 Y126.912 E0.58472
G1 X34.392 Y125.444 E0.64383
G1 X34.749 Y125.373 E0.65693
G1 X33.952 Y126.963 E0.72095
G1 X34.248 Y127.015 E0.73175
G1 X35.067 Y125.381 E0.79755
G1 X35.362 Y125.434 E0.80834
G1 X34.544 Y127.066 E0.87406
G1 X34.840 Y127.117 E0.88486
G1 X35.472 Y125.856 E0.93566
G1 X35.502 Y126.437 E0.95660
G1 X35.135 Y127.169 E0.98607
G1 X35.533 Y127.018 E1.00137
G1 X35.431 Y127.220 E1.00951
G1 E0.50951 F2400.00000
G92 E0
G1 X138.637 Y124.401 F18000.000
G1 E0.50000 F2400.00000
G1 X138.142 Y125.389 E0.59039 F1800.000
G1 X139.345 Y125.778 E0.69385
G1 X140.113 Y124.246 E0.83409
G1 X141.469 Y124.329 E0.94530
G1 X140.620 Y126.024 E1.10048
G1 X141.999 Y126.061 F18000.000
G1 X142.902 Y124.260 E1.26534 F1800.000
G1 X144.121 Y124.616 E1.36931
G1 X143.644 Y125.568 E1.45642
G1 E0.95642 F2400.00000
G92 E0
G1 X155.050 Y125.125 F18000.000
G1 E0.50000 F2400.00000
G1 X156.156 Y122.918 E0.70206 F1800.000
G1 X157.392 Y123.242 E0.80659
G1 X155.863 Y126.293 E1.08583
G1 X157.414 Y125.987 E1.21525
G1 X156.799 Y127.215 E1.32770
G1 Z0.400 F18000.000
G1 E0.82770 F2400.00000
G92 E0
G1 X96.309 Y143.267 F18000.000
G1 X66.841 Y142.935 F18000.000
G1 X66.687 Y142.914 F18000.000
G1 X32.120 Y128.295 F18000.000
G1 X32.735 Y126.173 F18000.000
G1 X35.423 Y127.237 F18000.000
G1 E0.50000 F2400.00000
G1 X35.541 Y127.000 E0.50168 F3600.000
G1 X35.068 Y127.176 E0.50489
G1 X35.505 Y126.303 E0.51108
G1 X35.468 Y125.606 E0.51551
G1 X34.713 Y127.114 E0.52622
G1 X34.358 Y127.052 E0.52850
G1 X35.194 Y125.385 E0.54034
G1 X34.829 Y125.342 E0.54267
G1 X34.003 Y126.991 E0.55438
G1 X33.648 Y126.929 E0.55667
G1 X34.401 Y125.427 E0.56733
G1 X34.280 Y124.898 E0.57077
G1 X33.288 Y126.878 E0.58483
G1 X32.917 Y126.847 E0.58719
G1 X34.745 Y123.201 E0.61307
G1 X34.332 Y123.254 E0.61571
G1 X32.564 Y126.782 E0.64075
G1 X32.255 Y126.628 E0.64294
G1 X33.920 Y123.307 E0.66652
G1 X33.508 Y123.360 E0.66916
G1 X31.963 Y126.442 E0.69104
G1 X31.670 Y126.256 E0.69324
G1 X33.073 Y123.457 E0.71311
G1 X32.665 Y123.501 E0.71571
G1 X31.378 Y126.069 E0.73395
G1 X31.085 Y125.883 E0.73615
G1 X32.142 Y123.775 E0.75112
G1 X31.385 Y124.515 F18000.000
G1 X30.793 Y125.697 E0.75951 F3600.000
G1 X30.500 Y125.511 E0.76172
G1 X30.628 Y125.256 E0.76352
G1 E0.26352 F2400.00000
G92 E0
G1 X34.354 Y124.751 F18000.000
G1 E0.50000 F2400.00000
G1 X35.157 Y123.148 E0.51138 F3600.000
G1 X35.359 Y123.515 E0.51404
G1 X34.824 Y124.583 E0.52162
G1 E0.02162 F2400.00000
G92 E0
G1 X140.948 Y124.786 F18000.000
G1 E0.50000 F2400.00000
G1 X140.789 Y124.770 E0.50101 F3600.000
G1 X140.789 Y124.820 E0.50132
G1 X141.169 Y124.820 E0.50373
G1 X140.948 Y124.786 E0.50515
G1 X142.072 Y124.635 F18000.000
G1 X141.869 Y124.820 E0.50690 F3600.000
G1 X142.261 Y124.820 E0.50938
G1 X142.261 Y124.675 E0.51030
G1 X142.072 Y124.635 E0.51153
G1 X142.146 Y124.304 F18000.000
G1 X141.962 Y124.261 E0.51273 F3600.000
G1 X141.640 Y124.569 E0.51556
G1 X141.139 Y124.467 E0.51880
G1 X140.450 Y124.406 E0.52319
G1 X140.450 Y125.159 E0.52797
G1 X142.600 Y125.159 E0.54162
G1 X142.600 Y124.401 E0.54643
G1 X142.146 Y124.304 E0.54938
G1 E0.04938 F2400.00000
G92 E0
G1 X156.941 Y123.685 F18000.000
G1 E0.50000 F2400.00000
G1 X156.182 Y123.486 E0.50498 F3600.000
G1 X156.167 Y123.685 E0.50625
G1 X156.941 Y123.685 E0.51116
G1 X157.394 Y123.453 F18000.000
G1 X155.885 Y123.057 E0.52107 F3600.000
G1 X155.811 Y123.837 E0.52604
G1 X155.378 Y124.645 E0.53185
G1 X154.486 Y124.772 E0.53757
G1 X154.038 Y124.726 E0.54044
G1 X153.855 Y125.075 E0.54293
G1 X154.820 Y124.842 E0.54923
G1 X155.033 Y124.888 E0.55062
G1 X155.574 Y125.142 E0.55441
G1 X155.724 Y125.421 E0.55642
G1 X155.739 Y125.519 E0.55705
G1 X155.979 Y126.153 E0.56135
G1 X156.091 Y126.654 E0.56461
G1 X157.278 Y127.210 E0.57293
G1 X157.394 Y123.453 E0.59679
G1 Z0.550 F18000.000
G1 E0.09679 F2400.00000
G92 E0
G1 X95.267 Y134.684 F18000.000
G1 E0.50000 F2400.00000
G1 X94.571 Y134.574 E0.52539 F3600.000
G1 X94.321 Y134.583 E0.53436
G1 X94.080 Y134.456 E0.54417
G1 X92.770 Y134.382 E0.59141
G1 X92.450 Y134.088 E0.60707
G1 X91.942 Y134.059 E0.62539
G1 X91.652 Y134.011 E0.63598
G1 X91.298 Y133.998 E0.64874
G1 X91.046 Y133.936 E0.65807
G1 X90.614 Y133.916 E0.67362
G1 X90.396 Y133.877 E0.68159
G1 X89.956 Y133.856 E0.69747
G1 X89.779 Y133.820 E0.70398
G1 X89.313 Y133.782 E0.72078
G1 X89.177 Y133.743 E0.72589
G1 X88.666 Y133.662 E0.74454
G1 X88.355 Y133.632 E0.75578
G1 X88.281 Y133.543 E0.75993
G1 X87.857 Y133.516 E0.77524
G1 X87.734 Y133.540 E0.77975
G1 X87.351 Y133.451 E0.79389
G1 X86.719 Y133.419 E0.81667
G1 X86.265 Y133.306 E0.83354
G1 X86.126 Y133.295 E0.83856
G1 X85.789 Y133.167 E0.85150
G1 X85.328 Y133.141 E0.86813
G1 X85.110 Y133.105 E0.87610
G1 X84.645 Y133.085 E0.89284
G1 X84.473 Y133.058 E0.89910
G1 X81.971 Y132.892 E0.98938
G1 X81.346 Y132.790 E1.01220
G1 X80.864 Y132.600 E1.03086
G1 X80.523 Y132.163 E1.05077
G1 X79.524 Y132.047 E1.08701
G1 X79.159 Y132.039 E1.10015
G1 X78.598 Y132.102 E1.12045
G1 X78.522 Y132.091 E1.12324
G1 X78.040 Y131.876 E1.14225
G1 X77.825 Y131.872 E1.14999
G1 X77.155 Y131.780 E1.17432
G1 X75.925 Y131.684 E1.21874
G1 X74.820 Y131.569 E1.25872
G1 X74.280 Y131.482 E1.27844
G1 X74.030 Y131.228 E1.29125
G1 X73.356 Y131.050 E1.31636
G1 X73.288 Y130.956 E1.32056
G1 X73.080 Y130.915 E1.32820
G1 X72.728 Y130.645 E1.34412
G1 X72.151 Y130.573 E1.36506
G1 X71.982 Y130.529 E1.37134
G1 X70.106 Y130.473 E1.43894
G1 X68.683 Y130.353 E1.49032
G1 X68.154 Y130.265 E1.50964
G1 X67.619 Y130.149 E1.52934
G1 X66.369 Y130.009 E1.57462
G1 X66.137 Y129.806 E1.58571
G1 X65.339 Y129.689 E1.61474
G1 X63.973 Y129.604 E1.66402
G1 X62.669 Y129.576 E1.71100
G1 X62.153 Y129.515 E1.72969
G1 X61.936 Y129.377 E1.73896
G1 X61.834 Y129.205 E1.74614
G1 X61.226 Y129.138 E1.76816
G1 X61.063 Y129.031 E1.77516
G1 X60.737 Y128.991 E1.78698
G1 X60.364 Y129.081 E1.80081
G1 X59.051 Y129.037 E1.84811
G1 X58.923 Y128.596 E1.86466
G1 X58.130 Y128.582 E1.89318
G1 X57.975 Y128.521 E1.89920
G1 X56.772 Y128.481 E1.94254
G1 X56.678 Y128.451 E1.94609
G1 X56.030 Y128.370 E1.96958
G1 X55.484 Y128.470 E1.98956
G1 X54.891 Y128.140 E2.01400
G1 X53.761 Y128.090 E2.05473
G1 X53.644 Y127.742 E2.06798
G1 X51.411 Y127.674 E2.14838
G1 X51.160 Y127.641 E2.15751
